X:6
T:Valse de Monoblet
R:Valse
O:France
A:Cvennes
M:3/4
L:1/4
Q:1/4=180
K:G
B |: "G"dBd | edc | "Am"A2c | "D"d2B | "G"dBd | edc | "D"A2d | "G"G2B :| "G"dBG | "D"FAB | "Am"cAc | "G"BGB | dBG |
 "D"F2E | DEF | "G"G2B | "G"BcB | "D"d3 | "C"c3 | "G"B2B | "G"dBG | "C"EDE | "D"FGA | "G"G2 d | "G"dBd | "C"ece |
 "D"fe/f/e/f/ | "G"gdB | gdB | "D"fec | fec | "G"d2 B/d/ |
 gdB | "D"fec | fe/f/e/f/ | "G"g2 B/d/ | gdB | "D"Aed | cBA | "G"G3 | "G"B3 | "C" c3 | "A7"^c3 | "D"d2 |]
%%begintext
